X:1
T: Lincolnshire Poacher
C: 
R:Jig
Q:180
K:Bb
M:6/8
L:1/16
dc|B4B2 B2A2G2|F4E2 D4F2|B4B2 c4A2|B6-B4F2|B4c2 d4e2|f4d2 B4c2|d4d2 d2c2B2|c6-c2 d2c2|
B4B2 B2A2G2|F4E2 D4F2|B4B2 c4A2|B6-B4F2|B4c2 d4e2|f4d2 B4c2|d4d2 d2c2B2|c6-c4F2|
B4c2 d4e2|f4d2 B4c2|d4d2 d2c2B2|c4z2 d4c2|B4B2 B2A2G2|F4E2 D4F2|B4B2 c4A2|B6-B4F2|
B4c2 d4e2|f4d2 B4c2|d4d2 d2c2B2|c4z2 d4c2|B4B2 B2A2G2|F4E2 D4F2|B4B2 c4A2|B6-B4||
